src/lib/packages/icons/src/assets/filled/heart-times.svg

<svg width="24" height="24" viewBox="0 0 24 24" fill="none" xmlns="http://www.w3.org/2000/svg">
<path d="M17.0002 12.995C16.2091 12.995 15.4357 13.2296 14.7779 13.6692C14.1201 14.1087 13.6074 14.7334 13.3047 15.4643C13.0019 16.1952 12.9228 16.9994 13.0771 17.7754C13.2315 18.5513 13.6124 19.264 14.1719 19.8235C14.7313 20.3829 15.4439 20.7638 16.2198 20.9182C16.9958 21.0725 17.8001 20.9933 18.531 20.6905C19.2619 20.3878 19.8866 19.8751 20.3262 19.2173C20.7657 18.5595 21.0002 17.7861 21.0002 16.995C21.0002 15.9342 20.5787 14.9167 19.8286 14.1666C19.0784 13.4164 18.0611 12.995 17.0002 12.995ZM18.3502 17.645C18.3976 17.6902 18.4355 17.7444 18.4613 17.8046C18.4871 17.8648 18.5003 17.9296 18.5003 17.995C18.5003 18.0605 18.4871 18.1253 18.4613 18.1854C18.4355 18.2456 18.3976 18.2999 18.3502 18.345C18.3051 18.3924 18.2508 18.4302 18.1907 18.456C18.1305 18.4818 18.0657 18.4951 18.0002 18.4951C17.9348 18.4951 17.87 18.4818 17.8098 18.456C17.7496 18.4302 17.6954 18.3924 17.6503 18.345L17.0002 17.705L16.3502 18.345C16.3051 18.3924 16.2508 18.4302 16.1907 18.456C16.1305 18.4818 16.0657 18.4951 16.0002 18.4951C15.9348 18.4951 15.87 18.4818 15.8098 18.456C15.7496 18.4302 15.6954 18.3924 15.6503 18.345C15.6028 18.2999 15.565 18.2456 15.5392 18.1854C15.5134 18.1253 15.5001 18.0605 15.5001 17.995C15.5001 17.9296 15.5134 17.8648 15.5392 17.8046C15.565 17.7444 15.6028 17.6902 15.6503 17.645L16.2903 16.995L15.6503 16.345C15.559 16.2519 15.5081 16.1265 15.5088 15.9961C15.5094 15.8656 15.5616 15.7407 15.6538 15.6485C15.746 15.5563 15.8708 15.5042 16.0012 15.5036C16.1316 15.5029 16.2571 15.5538 16.3502 15.645L17.0002 16.285L17.6503 15.645C17.7434 15.5538 17.8688 15.5029 17.9992 15.5036C18.1297 15.5042 18.2544 15.5563 18.3467 15.6485C18.4389 15.7407 18.491 15.8656 18.4917 15.9961C18.4923 16.1265 18.4415 16.2519 18.3502 16.345L17.7102 16.995L18.3502 17.645ZM11.5002 16.995C11.5029 15.5371 12.0832 14.1397 13.1141 13.1089C14.145 12.078 15.5423 11.4977 17.0002 11.495C18.1117 11.4929 19.1971 11.8314 20.1102 12.465C20.1728 12.5095 20.2466 12.5355 20.3232 12.54C20.3864 12.543 20.4488 12.525 20.5007 12.4888C20.5526 12.4526 20.5911 12.4003 20.6102 12.34C20.7 12.0544 20.7734 11.7639 20.8302 11.47C21.5502 7.75 19.9902 4.02002 15.9802 4.00002C13.0002 3.99002 12.0002 6.99002 12.0002 6.99002C12.0002 6.99002 11.0002 3.99002 8.02025 4.00002C4.02025 4.02002 2.44917 7.75 3.16917 11.47C4.33917 17.52 12.0002 21 12.0002 21C12.0002 21 12.1952 20.915 12.5232 20.744C12.5628 20.7266 12.597 20.6988 12.6222 20.6636C12.6473 20.6284 12.6625 20.5871 12.6662 20.544C12.6743 20.5036 12.6739 20.462 12.6651 20.4217C12.6564 20.3815 12.6393 20.3434 12.6152 20.31C11.8893 19.3576 11.4974 18.1925 11.5002 16.995Z" fill="currentColor"/>
</svg>

<svg xmlns="http://www.w3.org/2000/svg" width="24" height="24" fill="none"><path fill="currentColor" d="M17 12.995a4 4 0 1 0 0 8 4 4 0 0 0 0-8Zm1.35 4.65a.484.484 0 0 1 0 .7.484.484 0 0 1-.7 0l-.65-.64-.65.64a.484.484 0 0 1-.7 0 .482.482 0 0 1 0-.7l.64-.65-.64-.65a.495.495 0 0 1 .7-.7l.65.64.65-.64a.495.495 0 0 1 .7.7l-.64.65.64.65Zm-6.85-.65a5.51 5.51 0 0 1 5.5-5.5 5.437 5.437 0 0 1 3.11.97c.063.044.137.07.213.075a.286.286 0 0 0 .287-.2c.09-.286.163-.576.22-.87.72-3.72-.84-7.45-4.85-7.47C13 3.99 12 6.99 12 6.99s-1-3-3.98-2.99c-4 .02-5.57 3.75-4.85 7.47C4.34 17.52 12 21 12 21s.195-.085.523-.256a.241.241 0 0 0 .143-.2.298.298 0 0 0-.05-.234 5.448 5.448 0 0 1-1.116-3.315Z"/></svg>
